X: 1
T: Costumi Siciliane
M: 4/4
L: 1/8
R: reel
K: Fmaj
Affe eddc|cBBA B2B2|A^ceg a2a2|gffe f2f2|
Affe eddc|cBBA B2B2|A^ceg agfe|d2^czd3z:|
cdef g2b2|baa^g a2a2|agg^f g2g2|gffe f2f2|
A=B^cd e2g2|gffe f2f2|A=B^ce agfe|d2^czd3z:|
cdc=B c2A2|cAcf a2a2|aggb e2g2|gffa c2c2|
cdc=B c2A2|cAcf a2a2|aggb e2g2|gffe f3z:|
